src/assets/img/icons/duotone-icons/Design/Component.svg

<?xml version="1.0" encoding="UTF-8"?>
<svg width="24px" height="24px" viewBox="0 0 24 24" version="1.1" xmlns="http://www.w3.org/2000/svg" xmlns:xlink="http://www.w3.org/1999/xlink">
    <!-- Generator: Sketch 52.2 (67145) - http://www.bohemiancoding.com/sketch -->
    <title>Stockholm-icons / Design / Component</title>
    <desc>Created with Sketch.</desc>
    <g id="Stockholm-icons-/-Design-/-Component" stroke="none" stroke-width="1" fill="none" fill-rule="evenodd">
        <rect id="bound" x="0" y="0" width="24" height="24"></rect>
        <path d="M12.7442084,3.27882877 L19.2473374,6.9949025 C19.7146999,7.26196679 20.003129,7.75898194 20.003129,8.29726722 L20.003129,15.7027328 C20.003129,16.2410181 19.7146999,16.7380332 19.2473374,17.0050975 L12.7442084,20.7211712 C12.2830594,20.9846849 11.7169406,20.9846849 11.2557916,20.7211712 L4.75266256,17.0050975 C4.28530007,16.7380332 3.99687097,16.2410181 3.99687097,15.7027328 L3.99687097,8.29726722 C3.99687097,7.75898194 4.28530007,7.26196679 4.75266256,6.9949025 L11.2557916,3.27882877 C11.7169406,3.01531506 12.2830594,3.01531506 12.7442084,3.27882877 Z M12,14.5 C13.3807119,14.5 14.5,13.3807119 14.5,12 C14.5,10.6192881 13.3807119,9.5 12,9.5 C10.6192881,9.5 9.5,10.6192881 9.5,12 C9.5,13.3807119 10.6192881,14.5 12,14.5 Z" id="Combined-Shape" fill="#335EEA"></path>
    </g>
</svg>

<svg width="24" height="24" viewBox="0 0 24 24" xmlns="http://www.w3.org/2000/svg"><g fill="none" fill-rule="evenodd"><path d="M0 0h24v24H0z"/><path d="M12.744 3.279l6.503 3.716a1.5 1.5 0 01.756 1.302v7.406a1.5 1.5 0 01-.756 1.302l-6.503 3.716a1.5 1.5 0 01-1.488 0l-6.503-3.716a1.5 1.5 0 01-.756-1.302V8.297a1.5 1.5 0 01.756-1.302l6.503-3.716a1.5 1.5 0 011.488 0zM12 14.5a2.5 2.5 0 100-5 2.5 2.5 0 000 5z" fill="#335EEA"/></g></svg>
